X:1
T:Title
%%score { 1 | ( 2 3 ) }
L:1/8
Q:1/4=100
M:4/4
K:G
V:1 treble nm="Grand Piano"
V:2 bass 
V:3 bass 
V:1
 [B,G]3 [CE] [B,D]2 [CE]2 | [B,G]6 z2 | [Gd]3 [GB] [FA]2 G2 | [Fd]6 z2 | B3 B c2 B2 | %5
w: Will~L.~Thompson * * *|||||
 [Ad]2 [Fc]2 [FB]2 [FA]2 | G3 G A2 G2 | B2 [DG]2 [CE]2 [CD]2 | [B,G]4 A3 B | [Fd]6 z2 | %10
w: |||||
 [DGB]2 G2 [CFA]3 [B,DG] | [B,DG]6 z2 |] %12
w: ||
V:2
 [G,,G,]3 [G,,G,] [G,,G,]2 [G,,G,]2 | [G,,G,]6 z2 | [G,B,]3 [G,D] [D,C]2 [D,B,]2 | [D,A,]6 z2 | %4
 [G,G]3 [G,DG] [G,EG]2 [G,DG]2 | [F,D]2 [D,A,]2 [D,D]2 [D,C]2 | [E,B,E]3 [E,B,E] [E,CE]2 [E,B,E]2 | %7
 [D,G,D]2 [B,,G,]2 [C,G,]2 [D,F,]2 | [G,,G,]4 [D,F,D]3 [G,D] | [D,A,]6 z2 | z2 B,2 D,3 G,, | %11
 G,,6 z2 |] %12
V:3
 x8 | x8 | x8 | x8 | x8 | x8 | x8 | x8 | x8 | x8 | D,4 z4 | x8 |] %12

